app/img/contact/ic_job.svg

<svg width="23" height="21" viewBox="0 0 23 21" fill="none" xmlns="http://www.w3.org/2000/svg">
    <path d="M0.282422 10.7024L0.282423 10.7022L0.294276 5.26107C0.294276 5.261 0.294276 5.26092 0.294276 5.26085L0.294277 5.26064L0.494276 5.26107C0.494276 4.63117 1.02367 4.11827 1.67446 4.11827L0.282422 10.7024ZM0.282422 10.7024C0.282078 10.9589 0.432858 11.1893 0.664421 11.2983L0.664516 11.2984C0.878988 11.3992 1.09811 11.4933 1.31656 11.5849L0.282422 10.7024ZM7.62097 2.57983V3.91827L22.671 5.26179C22.6708 4.51495 22.0463 3.91827 21.2913 3.91827H15.3443V2.57983C15.3443 1.59255 14.518 0.8 13.5151 0.8H9.45018C8.44728 0.8 7.62097 1.59255 7.62097 2.57983ZM22.6824 10.5607L22.671 5.26222L22.4824 10.5613L22.6824 10.5608V10.5607ZM20.3 18.8561V18.8569C20.2994 18.8589 20.2976 18.8636 20.2915 18.8695C20.2827 18.878 20.2736 18.8804 20.2688 18.8804H2.6965C2.68895 18.8804 2.68021 18.8772 2.67301 18.8703C2.66582 18.8633 2.66512 18.8576 2.66512 18.8561V12.0979C4.62799 12.7664 6.79903 13.1753 9.14989 13.3165V13.7655C9.14989 14.3443 9.63338 14.8044 10.215 14.8044H12.7506C13.3321 14.8044 13.8152 14.3439 13.8152 13.7655V13.3086C16.1935 13.1533 18.3651 12.722 20.3 12.02V18.8561ZM1.64283 5.26266V5.26222C1.64283 5.26084 1.64347 5.25518 1.65072 5.24816C1.65799 5.24113 1.6669 5.23785 1.67469 5.23785H21.2916C21.2992 5.23785 21.3079 5.24105 21.315 5.24791C21.322 5.25471 21.323 5.26055 21.323 5.26291V5.26335L21.3336 10.1564C19.2055 11.1747 16.6785 11.7871 13.8109 11.983C13.7609 11.45 13.2997 11.0399 12.7508 11.0399H10.215C9.66215 11.0399 9.19813 11.4558 9.15342 11.994C6.33792 11.8172 3.81131 11.2434 1.63197 10.2832L1.64283 5.26266ZM8.96929 2.57983C8.96929 2.33194 9.17945 2.11957 9.45018 2.11957H13.5151C13.7797 2.11957 13.996 2.3381 13.996 2.57983V3.91827H8.96929V2.57983ZM10.4982 13.4848V12.3593H12.4671V13.4848H10.4982Z"
          fill="#A2A2A4" stroke="#A2A2A4" stroke-width="0.4"/>
</svg>

<svg width="23" height="21" fill="none" xmlns="http://www.w3.org/2000/svg"><path d="m.282 10.702.012-5.44V5.26h.2c0-.63.53-1.143 1.18-1.143L.282 10.702Zm0 0c0 .257.15.487.382.596.215.101.434.195.653.287l-1.035-.883ZM7.621 2.58v1.338l15.05 1.344c0-.747-.625-1.344-1.38-1.344h-5.947V2.58c0-.987-.826-1.78-1.829-1.78H9.45c-1.003 0-1.829.793-1.829 1.78Zm15.061 7.98-.011-5.298-.189 5.3.2-.001ZM20.3 18.857a.03.03 0 0 1-.009.013.035.035 0 0 1-.022.011H2.697a.035.035 0 0 1-.024-.01c-.007-.007-.008-.012-.008-.014v-6.758c1.963.668 4.134 1.077 6.485 1.218v.45c0 .578.483 1.038 1.065 1.038h2.536c.581 0 1.064-.46 1.064-1.039v-.456c2.379-.156 4.55-.587 6.485-1.289v6.836ZM1.643 5.263c0-.002 0-.008.008-.015a.035.035 0 0 1 .024-.01h19.617c.007 0 .016.003.023.01.007.007.008.013.008.015l.01 4.893c-2.127 1.019-4.654 1.631-7.522 1.827a1.056 1.056 0 0 0-1.06-.943h-2.536c-.553 0-1.017.416-1.062.954-2.815-.177-5.342-.75-7.521-1.71l.01-5.021ZM8.969 2.58c0-.248.21-.46.481-.46h4.065a.48.48 0 0 1 .481.46v1.338H8.969V2.58Zm1.53 10.905v-1.126h1.968v1.126h-1.969Z" fill="#A2A2A4" stroke="#A2A2A4" stroke-width=".4"/></svg>
